images/portal/4741.svg

<svg class="highcharts-root" xmlns="http://www.w3.org/2000/svg" width="485" height="415" font-family="arial" font-size="12">
    <defs>
        <clipPath id="a">
            <path fill="none" d="M0 0h275v337H0z"/>
        </clipPath>
    </defs>
    <rect fill="#fbfbfb" class="highcharts-background" width="485" height="415" rx="0" ry="0"/>
    <path fill="none" class="highcharts-plot-background" d="M138 75h337v275H138z"/>
    <g class="highcharts-grid highcharts-xaxis-grid">
        <path fill="none" class="highcharts-grid-line" d="M138 100.5h337m-337 25h337m-337 25h337m-337 25h337m-337 25h337m-337 25h337m-337 25h337m-337 25h337m-337 25h337m-337 25h337m-337 25h337m-337-275h337"/>
    </g>
    <g class="highcharts-grid highcharts-yaxis-grid">
        <path fill="none" stroke="#B9CFD7" stroke-width=".5" class="highcharts-grid-line" d="M137.75 75v275m67-275v275m68-275v275m67-275v275m68-275v275m67.5-275v275"/>
    </g>
    <path fill="none" class="highcharts-plot-border" d="M138 75h337v275H138z"/>
    <g class="highcharts-axis highcharts-xaxis">
        <path fill="none" class="highcharts-tick" stroke="#FFF" d="M138 100.5h-10m10 25h-10m10 25h-10m10 25h-10m10 25h-10m10 25h-10m10 25h-10m10 25h-10m10 25h-10m10 25h-10m10 25h-10m10-276h-10"/>
        <path fill="none" class="highcharts-axis-line" stroke="#B9CFD7" stroke-width=".5" d="M137.75 75v275"/>
    </g>
    <g class="highcharts-axis highcharts-yaxis">
        <path fill="none" class="highcharts-axis-line" d="M138 350h337"/>
    </g>
    <g class="highcharts-series-group">
        <g class="highcharts-series highcharts-series-0 highcharts-column-series highcharts-color-undefined" transform="matrix(0 -1 -1 0 475 350)" clip-path="url(#a)">
            <path fill="#B475AB" class="highcharts-point highcharts-color-0" d="M255 44h15v294h-15z"/>
            <path fill="#B475AB" class="highcharts-point highcharts-color-1" d="M230 86h15v252h-15z"/>
            <path fill="#B475AB" class="highcharts-point highcharts-color-2" d="M205 87h15v251h-15z"/>
            <path fill="#73BA7C" class="highcharts-point highcharts-color-3" d="M180 89h15v249h-15z"/>
            <path fill="#A8C4CB" class="highcharts-point highcharts-color-4" d="M155 93h15v245h-15z"/>
            <path fill="#B475AB" class="highcharts-point highcharts-color-5" d="M130 96h15v242h-15z"/>
            <path fill="#73BA7C" class="highcharts-point highcharts-color-6" d="M105 99h15v239h-15z"/>
            <path fill="#B475AB" class="highcharts-point highcharts-color-7" d="M80 105h15v233H80z"/>
            <path fill="#B475AB" class="highcharts-point highcharts-color-8" d="M55 139h15v199H55z"/>
            <path fill="#B475AB" class="highcharts-point highcharts-color-9" d="M30 144h15v194H30z"/>
            <path fill="#B475AB" class="highcharts-point highcharts-color-10" d="M5 172h15v166H5z"/>
        </g>
        <g class="highcharts-series highcharts-series-1 highcharts-errorbar-series highcharts-color-undefined" transform="matrix(0 -1 -1 0 475 350)" clip-path="url(#a)">
            <g class="highcharts-point">
                <path fill="none" class="highcharts-boxplot-stem" stroke="#000" d="M263.5 48V38m0 10"/>
                <path fill="none" class="highcharts-boxplot-whisker" stroke="#000" d="M259.5 38.5h8m-8 10h8"/>
            </g>
            <g class="highcharts-point">
                <path fill="none" class="highcharts-boxplot-stem" stroke="#000" d="M238.5 102V67m0 35"/>
                <path fill="none" class="highcharts-boxplot-whisker" stroke="#000" d="M234.5 67.5h8m-8 35h8"/>
            </g>
            <g class="highcharts-point">
                <path fill="none" class="highcharts-boxplot-stem" stroke="#000" d="M213.5 100V70m0 30"/>
                <path fill="none" class="highcharts-boxplot-whisker" stroke="#000" d="M209.5 70.5h8m-8 30h8"/>
            </g>
            <g class="highcharts-point">
                <path fill="none" class="highcharts-boxplot-stem" stroke="#000" d="M188.5 90v-5m0 5"/>
                <path fill="none" class="highcharts-boxplot-whisker" stroke="#000" d="M184.5 85.5h8m-8 5h8"/>
            </g>
            <g class="highcharts-point">
                <path fill="none" class="highcharts-boxplot-stem" stroke="#000" d="M163.5 94v-5m0 5"/>
                <path fill="none" class="highcharts-boxplot-whisker" stroke="#000" d="M159.5 89.5h8m-8 5h8"/>
            </g>
            <g class="highcharts-point">
                <path fill="none" class="highcharts-boxplot-stem" stroke="#000" d="M138.5 101V87m0 14"/>
                <path fill="none" class="highcharts-boxplot-whisker" stroke="#000" d="M134.5 87.5h8m-8 14h8"/>
            </g>
            <g class="highcharts-point">
                <path fill="none" class="highcharts-boxplot-stem" stroke="#000" d="M113.5 101v-7m0 7"/>
                <path fill="none" class="highcharts-boxplot-whisker" stroke="#000" d="M109.5 94.5h8m-8 7h8"/>
            </g>
            <g class="highcharts-point">
                <path fill="none" class="highcharts-boxplot-stem" stroke="#000" d="M88.5 114V93m0 21"/>
                <path fill="none" class="highcharts-boxplot-whisker" stroke="#000" d="M84.5 93.5h8m-8 21h8"/>
            </g>
            <g class="highcharts-point">
                <path fill="none" class="highcharts-boxplot-stem" stroke="#000" d="M63.5 160v-46m0 46"/>
                <path fill="none" class="highcharts-boxplot-whisker" stroke="#000" d="M59.5 114.5h8m-8 46h8"/>
            </g>
            <g class="highcharts-point">
                <path fill="none" class="highcharts-boxplot-stem" stroke="#000" d="M38.5 153v-21m0 21"/>
                <path fill="none" class="highcharts-boxplot-whisker" stroke="#000" d="M34.5 132.5h8m-8 21h8"/>
            </g>
            <g class="highcharts-point">
                <path fill="none" class="highcharts-boxplot-stem" stroke="#000" d="M13.5 182v-24m0 24"/>
                <path fill="none" class="highcharts-boxplot-whisker" stroke="#000" d="M9.5 158.5h8m-8 24h8"/>
            </g>
        </g>
    </g>
    <text x="10" class="highcharts-title" y="21" color="#000" font-size="14" font-weight="700">
        <tspan>Erwerbstätigenquote nach Staatsangehörigkeit 2010 bis 2014</tspan>
    </text>
    <g class="highcharts-axis-labels highcharts-xaxis-labels" text-anchor="end" color="#000" cursor="default" font-size="11">
        <text x="123" y="92">
            <tspan>Deutschland</tspan>
        </text>
        <text x="123" y="117">
            <tspan>EU-Oststaaten</tspan>
        </text>
        <text x="123" y="142">
            <tspan>Spanien</tspan>
        </text>
        <text x="123" y="167">
            <tspan>Total Schweiz</tspan>
        </text>
        <text x="123" y="192">
            <tspan>Total</tspan>
        </text>
        <text x="123" y="217">
            <tspan>Restliche Welt</tspan>
        </text>
        <text x="123" y="242">
            <tspan>Total Ausland</tspan>
        </text>
        <text x="123" y="267">
            <tspan>Italien</tspan>
        </text>
        <text x="123" y="292">
            <tspan>Mittel- und Südamerika</tspan>
        </text>
        <text x="123" y="317">
            <tspan>Ehem. Jugoslawien</tspan>
        </text>
        <text x="123" y="342">
            <tspan>Türkei</tspan>
        </text>
    </g>
    <g class="highcharts-axis-labels highcharts-yaxis-labels" text-anchor="middle" color="#000" cursor="default" font-size="11">
        <text x="138" y="369">
            0%
        </text>
        <text x="205.4" y="369">
            20%
        </text>
        <text x="272.8" y="369">
            40%
        </text>
        <text x="340.2" y="369">
            60%
        </text>
        <text x="407.6" y="369">
            80%
        </text>
        <text x="460.953" y="369">
            100%
        </text>
    </g>
    <text x="10" class="highcharts-credits" y="400" cursor="default" color="#000" font-size="10">
        <tspan>Quelle: Bundesamt für Statistik BFS, Strukturerhebung (SE)</tspan>
    </text>
</svg>

<?xml version="1.0" standalone="no"?><!DOCTYPE svg PUBLIC "-//W3C//DTD SVG 1.1//EN" "http://www.w3.org/Graphics/SVG/1.1/DTD/svg11.dtd"><svg xmlns:xlink="http://www.w3.org/1999/xlink" version="1.1" class="highcharts-root" style="font-family:arial;font-size:12px;" xmlns="http://www.w3.org/2000/svg" width="485" height="415"><desc>Created with Highstock 5.0.14</desc><defs><clipPath id="highcharts-4r866k8-6"><rect x="0" y="0" width="275" height="337" fill="none"></rect></clipPath><clipPath id="highcharts-4r866k8-7"><rect x="0" y="0" width="275" height="337" fill="none"></rect></clipPath></defs><rect fill="#fbfbfb" class="highcharts-background" x="0" y="0" width="485" height="415" rx="0" ry="0"></rect><rect fill="none" class="highcharts-plot-background" x="138" y="75" width="337" height="275"></rect><g class="highcharts-pane-group"></g><g class="highcharts-grid highcharts-xaxis-grid "><path fill="none" class="highcharts-grid-line" d="M 138 100.5 L 475 100.5" opacity="1"></path><path fill="none" class="highcharts-grid-line" d="M 138 125.5 L 475 125.5" opacity="1"></path><path fill="none" class="highcharts-grid-line" d="M 138 150.5 L 475 150.5" opacity="1"></path><path fill="none" class="highcharts-grid-line" d="M 138 175.5 L 475 175.5" opacity="1"></path><path fill="none" class="highcharts-grid-line" d="M 138 200.5 L 475 200.5" opacity="1"></path><path fill="none" class="highcharts-grid-line" d="M 138 225.5 L 475 225.5" opacity="1"></path><path fill="none" class="highcharts-grid-line" d="M 138 250.5 L 475 250.5" opacity="1"></path><path fill="none" class="highcharts-grid-line" d="M 138 275.5 L 475 275.5" opacity="1"></path><path fill="none" class="highcharts-grid-line" d="M 138 300.5 L 475 300.5" opacity="1"></path><path fill="none" class="highcharts-grid-line" d="M 138 325.5 L 475 325.5" opacity="1"></path><path fill="none" class="highcharts-grid-line" d="M 138 350.5 L 475 350.5" opacity="1"></path><path fill="none" class="highcharts-grid-line" d="M 138 75.5 L 475 75.5" opacity="1"></path></g><g class="highcharts-grid highcharts-yaxis-grid "><path fill="none" stroke="#B9CFD7" stroke-width="0.5" class="highcharts-grid-line" d="M 137.75 75 L 137.75 350" opacity="1"></path><path fill="none" stroke="#B9CFD7" stroke-width="0.5" class="highcharts-grid-line" d="M 204.75 75 L 204.75 350" opacity="1"></path><path fill="none" stroke="#B9CFD7" stroke-width="0.5" class="highcharts-grid-line" d="M 272.75 75 L 272.75 350" opacity="1"></path><path fill="none" stroke="#B9CFD7" stroke-width="0.5" class="highcharts-grid-line" d="M 339.75 75 L 339.75 350" opacity="1"></path><path fill="none" stroke="#B9CFD7" stroke-width="0.5" class="highcharts-grid-line" d="M 407.75 75 L 407.75 350" opacity="1"></path><path fill="none" stroke="#B9CFD7" stroke-width="0.5" class="highcharts-grid-line" d="M 475.25 75 L 475.25 350" opacity="1"></path></g><rect fill="none" class="highcharts-plot-border" x="138" y="75" width="337" height="275"></rect><g class="highcharts-axis highcharts-xaxis "><path fill="none" class="highcharts-tick" stroke="#FFFFFF" stroke-width="1" d="M 138 100.5 L 128 100.5" opacity="1"></path><path fill="none" class="highcharts-tick" stroke="#FFFFFF" stroke-width="1" d="M 138 125.5 L 128 125.5" opacity="1"></path><path fill="none" class="highcharts-tick" stroke="#FFFFFF" stroke-width="1" d="M 138 150.5 L 128 150.5" opacity="1"></path><path fill="none" class="highcharts-tick" stroke="#FFFFFF" stroke-width="1" d="M 138 175.5 L 128 175.5" opacity="1"></path><path fill="none" class="highcharts-tick" stroke="#FFFFFF" stroke-width="1" d="M 138 200.5 L 128 200.5" opacity="1"></path><path fill="none" class="highcharts-tick" stroke="#FFFFFF" stroke-width="1" d="M 138 225.5 L 128 225.5" opacity="1"></path><path fill="none" class="highcharts-tick" stroke="#FFFFFF" stroke-width="1" d="M 138 250.5 L 128 250.5" opacity="1"></path><path fill="none" class="highcharts-tick" stroke="#FFFFFF" stroke-width="1" d="M 138 275.5 L 128 275.5" opacity="1"></path><path fill="none" class="highcharts-tick" stroke="#FFFFFF" stroke-width="1" d="M 138 300.5 L 128 300.5" opacity="1"></path><path fill="none" class="highcharts-tick" stroke="#FFFFFF" stroke-width="1" d="M 138 325.5 L 128 325.5" opacity="1"></path><path fill="none" class="highcharts-tick" stroke="#FFFFFF" stroke-width="1" d="M 138 350.5 L 128 350.5" opacity="1"></path><path fill="none" class="highcharts-tick" stroke="#FFFFFF" stroke-width="1" d="M 138 74.5 L 128 74.5" opacity="1"></path><path fill="none" class="highcharts-axis-line" stroke="#B9CFD7" stroke-width="0.5" d="M 137.75 75 L 137.75 350"></path></g><g class="highcharts-axis highcharts-yaxis "><path fill="none" class="highcharts-axis-line" d="M 138 350 L 475 350"></path></g><g class="highcharts-series-group"><g class="highcharts-series highcharts-series-0 highcharts-column-series highcharts-color-undefined " transform="translate(475,350) rotate(90) scale(-1,1) scale(1 1)" clip-path="url(#highcharts-4r866k8-7)"><rect x="255" y="44" width="15" height="294" fill="#B475AB" class="highcharts-point highcharts-color-0"></rect><rect x="230" y="86" width="15" height="252" fill="#B475AB" class="highcharts-point highcharts-color-1"></rect><rect x="205" y="87" width="15" height="251" fill="#B475AB" class="highcharts-point highcharts-color-2"></rect><rect x="180" y="89" width="15" height="249" fill="#73BA7C" class="highcharts-point highcharts-color-3"></rect><rect x="155" y="93" width="15" height="245" fill="#A8C4CB" class="highcharts-point highcharts-color-4"></rect><rect x="130" y="96" width="15" height="242" fill="#B475AB" class="highcharts-point highcharts-color-5"></rect><rect x="105" y="99" width="15" height="239" fill="#73BA7C" class="highcharts-point highcharts-color-6"></rect><rect x="80" y="105" width="15" height="233" fill="#B475AB" class="highcharts-point highcharts-color-7"></rect><rect x="55" y="139" width="15" height="199" fill="#B475AB" class="highcharts-point highcharts-color-8"></rect><rect x="30" y="144" width="15" height="194" fill="#B475AB" class="highcharts-point highcharts-color-9"></rect><rect x="5" y="172" width="15" height="166" fill="#B475AB" class="highcharts-point highcharts-color-10"></rect></g><g class="highcharts-markers highcharts-series-0 highcharts-column-series highcharts-color-undefined " transform="translate(475,350) rotate(90) scale(-1,1) scale(1 1)" clip-path="none"></g><g class="highcharts-series highcharts-series-1 highcharts-errorbar-series highcharts-color-undefined " transform="translate(475,350) rotate(90) scale(-1,1) scale(1 1)" clip-path="url(#highcharts-4r866k8-7)"><g class="highcharts-point"><path fill="none" class="highcharts-boxplot-stem" stroke="#000000" stroke-width="1" d="M 263.5 48 L 263.5 38 M 263.5 48 L 263.5 48"></path><path fill="none" class="highcharts-boxplot-whisker" stroke="#000000" stroke-width="1" d="M 259.5 38.5 L 267.5 38.5 M 259.5 48.5 L 267.5 48.5"></path><path fill="none" class="highcharts-boxplot-median" stroke="#000000" stroke-width="2" d="M 0 0"></path></g><g class="highcharts-point"><path fill="none" class="highcharts-boxplot-stem" stroke="#000000" stroke-width="1" d="M 238.5 102 L 238.5 67 M 238.5 102 L 238.5 102"></path><path fill="none" class="highcharts-boxplot-whisker" stroke="#000000" stroke-width="1" d="M 234.5 67.5 L 242.5 67.5 M 234.5 102.5 L 242.5 102.5"></path><path fill="none" class="highcharts-boxplot-median" stroke="#000000" stroke-width="2" d="M 0 0"></path></g><g class="highcharts-point"><path fill="none" class="highcharts-boxplot-stem" stroke="#000000" stroke-width="1" d="M 213.5 100 L 213.5 70 M 213.5 100 L 213.5 100"></path><path fill="none" class="highcharts-boxplot-whisker" stroke="#000000" stroke-width="1" d="M 209.5 70.5 L 217.5 70.5 M 209.5 100.5 L 217.5 100.5"></path><path fill="none" class="highcharts-boxplot-median" stroke="#000000" stroke-width="2" d="M 0 0"></path></g><g class="highcharts-point"><path fill="none" class="highcharts-boxplot-stem" stroke="#000000" stroke-width="1" d="M 188.5 90 L 188.5 85 M 188.5 90 L 188.5 90"></path><path fill="none" class="highcharts-boxplot-whisker" stroke="#000000" stroke-width="1" d="M 184.5 85.5 L 192.5 85.5 M 184.5 90.5 L 192.5 90.5"></path><path fill="none" class="highcharts-boxplot-median" stroke="#000000" stroke-width="2" d="M 0 0"></path></g><g class="highcharts-point"><path fill="none" class="highcharts-boxplot-stem" stroke="#000000" stroke-width="1" d="M 163.5 94 L 163.5 89 M 163.5 94 L 163.5 94"></path><path fill="none" class="highcharts-boxplot-whisker" stroke="#000000" stroke-width="1" d="M 159.5 89.5 L 167.5 89.5 M 159.5 94.5 L 167.5 94.5"></path><path fill="none" class="highcharts-boxplot-median" stroke="#000000" stroke-width="2" d="M 0 0"></path></g><g class="highcharts-point"><path fill="none" class="highcharts-boxplot-stem" stroke="#000000" stroke-width="1" d="M 138.5 101 L 138.5 87 M 138.5 101 L 138.5 101"></path><path fill="none" class="highcharts-boxplot-whisker" stroke="#000000" stroke-width="1" d="M 134.5 87.5 L 142.5 87.5 M 134.5 101.5 L 142.5 101.5"></path><path fill="none" class="highcharts-boxplot-median" stroke="#000000" stroke-width="2" d="M 0 0"></path></g><g class="highcharts-point"><path fill="none" class="highcharts-boxplot-stem" stroke="#000000" stroke-width="1" d="M 113.5 101 L 113.5 94 M 113.5 101 L 113.5 101"></path><path fill="none" class="highcharts-boxplot-whisker" stroke="#000000" stroke-width="1" d="M 109.5 94.5 L 117.5 94.5 M 109.5 101.5 L 117.5 101.5"></path><path fill="none" class="highcharts-boxplot-median" stroke="#000000" stroke-width="2" d="M 0 0"></path></g><g class="highcharts-point"><path fill="none" class="highcharts-boxplot-stem" stroke="#000000" stroke-width="1" d="M 88.5 114 L 88.5 93 M 88.5 114 L 88.5 114"></path><path fill="none" class="highcharts-boxplot-whisker" stroke="#000000" stroke-width="1" d="M 84.5 93.5 L 92.5 93.5 M 84.5 114.5 L 92.5 114.5"></path><path fill="none" class="highcharts-boxplot-median" stroke="#000000" stroke-width="2" d="M 0 0"></path></g><g class="highcharts-point"><path fill="none" class="highcharts-boxplot-stem" stroke="#000000" stroke-width="1" d="M 63.5 160 L 63.5 114 M 63.5 160 L 63.5 160"></path><path fill="none" class="highcharts-boxplot-whisker" stroke="#000000" stroke-width="1" d="M 59.5 114.5 L 67.5 114.5 M 59.5 160.5 L 67.5 160.5"></path><path fill="none" class="highcharts-boxplot-median" stroke="#000000" stroke-width="2" d="M 0 0"></path></g><g class="highcharts-point"><path fill="none" class="highcharts-boxplot-stem" stroke="#000000" stroke-width="1" d="M 38.5 153 L 38.5 132 M 38.5 153 L 38.5 153"></path><path fill="none" class="highcharts-boxplot-whisker" stroke="#000000" stroke-width="1" d="M 34.5 132.5 L 42.5 132.5 M 34.5 153.5 L 42.5 153.5"></path><path fill="none" class="highcharts-boxplot-median" stroke="#000000" stroke-width="2" d="M 0 0"></path></g><g class="highcharts-point"><path fill="none" class="highcharts-boxplot-stem" stroke="#000000" stroke-width="1" d="M 13.5 182 L 13.5 158 M 13.5 182 L 13.5 182"></path><path fill="none" class="highcharts-boxplot-whisker" stroke="#000000" stroke-width="1" d="M 9.5 158.5 L 17.5 158.5 M 9.5 182.5 L 17.5 182.5"></path><path fill="none" class="highcharts-boxplot-median" stroke="#000000" stroke-width="2" d="M 0 0"></path></g></g><g class="highcharts-markers highcharts-series-1 highcharts-errorbar-series highcharts-color-undefined " transform="translate(475,350) rotate(90) scale(-1,1) scale(1 1)" clip-path="none"></g></g><text x="10" text-anchor="start" class="highcharts-title" style="color:#000000;font-size:14px;font-weight:bold;fill:#000000;" y="21"><tspan>Erwerbstätigenquote nach Staatsangehörigkeit 2010 bis 2014</tspan></text><g class="highcharts-axis-labels highcharts-xaxis-labels "><text x="123" style="color:#000000;cursor:default;font-size:11px;fill:#000000;" text-anchor="end" transform="translate(0,0)" y="92" opacity="1"><tspan>Deutschland</tspan></text><text x="123" style="color:#000000;cursor:default;font-size:11px;fill:#000000;" text-anchor="end" transform="translate(0,0)" y="117" opacity="1"><tspan>EU-Oststaaten</tspan></text><text x="123" style="color:#000000;cursor:default;font-size:11px;fill:#000000;" text-anchor="end" transform="translate(0,0)" y="142" opacity="1"><tspan>Spanien</tspan></text><text x="123" style="color:#000000;cursor:default;font-size:11px;fill:#000000;" text-anchor="end" transform="translate(0,0)" y="167" opacity="1"><tspan>Total Schweiz</tspan></text><text x="123" style="color:#000000;cursor:default;font-size:11px;fill:#000000;" text-anchor="end" transform="translate(0,0)" y="192" opacity="1"><tspan>Total</tspan></text><text x="123" style="color:#000000;cursor:default;font-size:11px;fill:#000000;" text-anchor="end" transform="translate(0,0)" y="217" opacity="1"><tspan>Restliche Welt</tspan></text><text x="123" style="color:#000000;cursor:default;font-size:11px;fill:#000000;" text-anchor="end" transform="translate(0,0)" y="242" opacity="1"><tspan>Total Ausland</tspan></text><text x="123" style="color:#000000;cursor:default;font-size:11px;fill:#000000;" text-anchor="end" transform="translate(0,0)" y="267" opacity="1"><tspan>Italien</tspan></text><text x="123" style="color:#000000;cursor:default;font-size:11px;fill:#000000;" text-anchor="end" transform="translate(0,0)" y="292" opacity="1"><tspan>Mittel- und Südamerika</tspan></text><text x="123" style="color:#000000;cursor:default;font-size:11px;fill:#000000;" text-anchor="end" transform="translate(0,0)" y="317" opacity="1"><tspan>Ehem. Jugoslawien</tspan></text><text x="123" style="color:#000000;cursor:default;font-size:11px;fill:#000000;" text-anchor="end" transform="translate(0,0)" y="342" opacity="1"><tspan>Türkei</tspan></text></g><g class="highcharts-axis-labels highcharts-yaxis-labels "><text x="138" style="color:#000000;cursor:default;font-size:11px;fill:#000000;" text-anchor="middle" transform="translate(0,0)" y="369" opacity="1">0%</text><text x="205.4" style="color:#000000;cursor:default;font-size:11px;fill:#000000;" text-anchor="middle" transform="translate(0,0)" y="369" opacity="1">20%</text><text x="272.8" style="color:#000000;cursor:default;font-size:11px;fill:#000000;" text-anchor="middle" transform="translate(0,0)" y="369" opacity="1">40%</text><text x="340.2" style="color:#000000;cursor:default;font-size:11px;fill:#000000;" text-anchor="middle" transform="translate(0,0)" y="369" opacity="1">60%</text><text x="407.6" style="color:#000000;cursor:default;font-size:11px;fill:#000000;" text-anchor="middle" transform="translate(0,0)" y="369" opacity="1">80%</text><text x="460.953125" style="color:#000000;cursor:default;font-size:11px;fill:#000000;" text-anchor="middle" transform="translate(0,0)" y="369" opacity="1">100%</text></g><text x="10" class="highcharts-credits" text-anchor="start" style="cursor:default;color:#000000;font-size:10px;fill:#000000;" y="400"><tspan>Quelle: Bundesamt für Statistik BFS, Strukturerhebung (SE)</tspan></text></svg>
